X:48
T: DRUNTEN IM UNTERLAND
N: B0533
O: Europa, Mitteleuropa, Deutschland, Schwaben
R: Wander -, Heimat - Lied
M: 3/4
L: 1/8
K: Bb
 | DFBDF2 | E2G2G2 |
FAcedc | B4z2 |
DFBDF2 | E2G2G2 |
FAcedc | B4z2 |
B2d2f2 | e3dc2 |
F2Ace2 | d3cB2 |
DFBDF2 | E2G2G2 |
FAcedc | B4z2 |
B2d2f2 | e3dc2 |
F2Ace2 | d3cB2 |
DFBDF2 | E2G2G2 |
FAcedc | B4z2

@@@ Tune index: 2266
